X:1
T:Title
%%score ( 1 2 ) { 3 | 4 }
L:1/8
Q:1/4=110
M:4/4
K:Bb
V:1 treble nm="Grand Piano, Soprano"
V:2 treble 
V:3 bass nm="Choir Pad, Following the Star, Elsie Yale"
V:4 bass 
V:1
 [DF]2 [DG]2 [DA]2 [DB]2 | e4 A4 | [EA]2 [Ec]2 [EB]2 [EG]2 | F6 z2 | [DF]2 [DG]2 [DA]2 [DB]2 | %5
w: By~Carl~Harold~Lowden * * *|||||
 F2 z2 A4 | [_DB]2 [DA]2 [DB]2 [DA]2 | [Dd]6 z2 | [Ae]2 [Ec]2 [EG]2 [EA]2 | B4 F4 | %10
w: |||||
 [Ae]2 [Ac]2 [EG]2 [EA]2 | [DB]6 z2 | [_DB]2 [DB]2 [EB]2 [=EB]2 | [FB]4 [B,F]4 | %14
w: ||||
 [B,G]2 [B,G]2 [CA]2 [DB]2 | [Ad]4 [Ec]4 | [FB]2 [DA]2 [DG]2 [DA]2 | F6 z2 | %18
w: ||||
 [B,D]2 [DF]2 [DG]2 [FB]2 | e2- [Ae-]2 [Ae]2 A2 | [Ae]2 [Ec]2 [E=B]2 [Ac]2 | %21
w: |||
 [Fd]2 [DB]2 [DA]2 [FB]2 | c4 c4 | [Fc]6 z2 | [FB]2 [DA]2 [DG]2 [DA]2 | G4 F4 | %26
w: |||||
 [DB]2 [DB]2 [Gc]2 [Gc]2 | [^Fd]6 z2 | [Fd]2 [=Bf]2 [Fe]2 [Gd]2 | [Gc]2 [Gd]2 [Ge]2 [G=e]2 | %30
w: ||||
 [Ff]2 [Gd]2 [Ec]3 [DB] | [DB]8 |] %32
w: ||
V:2
 x8 | A2 A2 E2 E2 | x8 | D2 D2 D2 D2 | x8 | d2- [Fd]2 D2 D2 | x8 | x8 | x8 | F2 F2 D2 D2 | x8 | %11
 x8 | x8 | x8 | x8 | x8 | x8 | D2 D2 D2 D2 | x8 | A2 z2 z4 | x8 | x8 | C2 =E2 C2 B2 | x8 | x8 | %25
 E2 E2 E2 E2 | x8 | x8 | x8 | x8 | x8 | x8 |] %32
V:3
 F,2 F,2 F,2 F,2 | F,2 F,2 F,2 F,2 | F,2 F,2 F,2 F,2 | F,2 F,2 F,2 F,2 | F,2 F,2 F,2 F,2 | %5
 F,2 F,2 F,2 F,2 | G,2 G,2 G,2 G,2 | F,2 A,>A, A,2 A,2 | F,2 F,2 F,2 F,2 | F,2 F,2 F,2 F,2 | %10
 F,2 F,2 F,2 F,2 | F,2 F,2 D,2 B,,2 | ^F,2 F,2 F,2 F,2 | F,4 F,4 | F,2 F,2 F,2 F,2 | F,8 | %16
 F,2 F,2 F,2 F,2 | F,2 F,2 F,2 F,2 | F,2 F,2 F,2 F,2 | F,2 F,2 F,2 F,2 | F,2 F,2 F,2 F,2 | %21
 F,2 F,2 F,2 F,2 | C,2 B,2 A,2 G,2 | F,2 E,2 D,2 C,2 | F,2 F,2 F,2 F,2 | F,2 F,2 F,2 F,2 | %26
 F,2 G,2 E,2 E,2 | D,2 ^F,2 A,2 C2 | =B,2 G,2 G,2 F,2 | E,2 D,2 C,2 _D,2 | D,2 B,,2 A,3 B, | B,8 |] %32
V:4
 B,,2 F,,2 B,,2 F,,2 | C,2 F,,2 C,2 F,,2 | C,2 F,,2 C,2 F,,2 | B,,2 F,,2 B,,2 F,,2 | %4
 B,,2 F,,2 B,,2 F,,2 | A,,2 A,,2 A,,2 A,,2 | A,,2 A,,2 A,,2 A,,2 | D,2 F,>F, D,2 D,2 | %8
 C,2 F,,2 C,2 F,,2 | B,,2 F,,2 B,,2 F,,2 | C,2 F,,2 C,2 F,,2 | B,,2 z2 z4 | G,,2 ^F,,2 F,,2 F,,2 | %13
 F,,4 F,,4 | F,,2 F,,2 F,,2 F,,2 | F,,8 | B,,2 F,,2 B,,2 F,,2 | B,,2 F,,2 B,,2 F,,2 | %18
 B,,2 F,,2 B,,2 F,,2 | C,2 F,,2 C,2 F,,2 | C,2 F,,2 C,2 F,,2 | B,,2 F,,2 B,,2 F,,2 | %22
 C,,2 B,,2 A,,2 G,,2 | F,,2 E,,2 D,,2 C,,2 | B,,2 F,,2 B,,2 F,,2 | C,2 F,,2 C,2 F,,2 | %26
 B,,2 G,,2 E,,2 E,,2 | D,,2 F,,2 A,,2 C,2 | =B,,2 G,,2 G,,2 F,,2 | E,,2 D,,2 C,,2 _D,,2 | %30
 D,,2 B,,,2 F,,3 B,, | B,,8 |] %32

